svg/300/outlined/stack_off-fill.svg

<svg xmlns="http://www.w3.org/2000/svg" width="48" height="48" viewBox="0 -960 960 960"><path d="M859.999-192.925 432.925-619.999h369.381q23.596 0 40.645 17.048 17.048 17.049 17.048 40.645v369.381ZM574.615-693.076v-109.23q0-5.001-3.654-8.655-3.654-3.654-8.655-3.654H238.309l-45.384-45.384h369.381q23.596 0 40.645 17.048 17.048 17.049 17.048 40.645v109.23h-45.384Zm252.769 625.69-32.615-32.615H397.694q-24.346 0-41.02-16.673-16.673-16.674-16.673-41.02v-397.075L145.385-749.386v364.001h121.539v45.384h-109.23q-24.346 0-41.02-16.673-16.673-16.674-16.673-41.02v-397.075l-32.614-32.615L100-859.999l759.998 759.998-32.615 32.614Z"/></svg>

<svg xmlns="http://www.w3.org/2000/svg" width="48" height="48" viewBox="0 -960 960 960"><path d="M860-192.93 432.93-620h369.38q23.59 0 40.64 17.05T860-562.31v369.38ZM574.61-693.08v-109.23q0-5-3.65-8.65-3.65-3.65-8.65-3.65h-324L192.93-860h369.38q23.59 0 40.64 17.05T620-802.31v109.23h-45.39ZM827.38-67.39 794.77-100H397.69q-24.34 0-41.02-16.67Q340-133.35 340-157.69v-397.08L145.39-749.39v364h121.53V-340H157.69q-24.34 0-41.02-16.67Q100-373.35 100-397.69v-397.08l-32.61-32.61L100-860l760 760-32.62 32.61Z"/></svg>
